X:5245
T:Preston Hornpipe. JMT012
O:england
M:C
L:1/8
C:Dixon
S:J,Moore,Tyneside,1841.(79b)
R:Hornpipe
A:Northumbria
N:Appears in "the Fiddler Of Helperby" as untitled hornpipe number fiv
K:C
zG | (cB)cd (cd)ef | g-ega (ge)dc | (AG)AB (cB)dA | GEcA (GE)CE |
(FE)FG (AG)AB | (cB)cd (ef)ag | (fe)dc (Ac)Bd | c2c2c2 :|
|: gf | egcg egcg | dgBg dgBg | ceAe ceAe | GcEc GcEA |
(FE)FG (AG)AB |(cB)cd (ef)ag | (ae)dc AcBd | c2c2c2 :|


